svgs/regular/calendar-star.svg

<svg xmlns="http://www.w3.org/2000/svg" viewBox="0 0 448 512"><!--! Font Awesome Pro 6.3.0 by @fontawesome - https://fontawesome.com License - https://fontawesome.com/license (Commercial License) Copyright 2023 Fonticons, Inc. --><path d="M128 0c13.3 0 24 10.7 24 24V64H296V24c0-13.3 10.7-24 24-24s24 10.7 24 24V64h40c35.3 0 64 28.7 64 64v16 48V448c0 35.3-28.7 64-64 64H64c-35.3 0-64-28.7-64-64V192 144 128C0 92.7 28.7 64 64 64h40V24c0-13.3 10.7-24 24-24zM400 192H48V448c0 8.8 7.2 16 16 16H384c8.8 0 16-7.2 16-16V192zM233.3 242.9l23.6 47.8 52.7 7.7c8.5 1.2 11.9 11.7 5.8 17.7l-38.2 37.2 9 52.5c1.5 8.5-7.5 15-15.1 11L224 392l-47.2 24.8c-7.6 4-16.5-2.5-15.1-11l9-52.5-38.2-37.2c-6.2-6-2.8-16.5 5.8-17.7l52.7-7.7 23.6-47.8c3.8-7.7 14.8-7.7 18.7 0z"/></svg>

<svg xmlns="http://www.w3.org/2000/svg" viewBox="0 0 448 512"><!--! Font Awesome Pro 6.2.0 by @fontawesome - https://fontawesome.com License - https://fontawesome.com/license (Commercial License) Copyright 2022 Fonticons, Inc. --><path d="M256.9 290.7L309.7 298.4C318.2 299.6 321.6 310.1 315.4 316.1L277.3 353.3L286.3 405.8C287.7 414.3 278.8 420.8 271.2 416.8L224 392L176.8 416.8C169.2 420.8 160.3 414.3 161.7 405.8L170.7 353.3L132.6 316.1C126.4 310.1 129.8 299.6 138.3 298.4L191.1 290.7L214.7 242.9C218.5 235.2 229.5 235.2 233.3 242.9L256.9 290.7zM128 0C141.3 0 152 10.75 152 24V64H296V24C296 10.75 306.7 0 320 0C333.3 0 344 10.75 344 24V64H384C419.3 64 448 92.65 448 128V448C448 483.3 419.3 512 384 512H64C28.65 512 0 483.3 0 448V128C0 92.65 28.65 64 64 64H104V24C104 10.75 114.7 0 128 0zM400 192H48V448C48 456.8 55.16 464 64 464H384C392.8 464 400 456.8 400 448V192z"/></svg>
